!!!OTL: Ye Banks and Braes
!!!ARE: Scotland
!!!AMD: Pentatonic
**kern
*clefG2
*k[f#]
*M6/8
*MM54
{8d/
=1
4g/
8g/
(8a/L
8g/)
8a/J
=2
(8b\L
8dd\)
8b\J
(8a/L
8g/)}
{8a/J
=3
8.b/L
16a/k
8g/J
(8g/L
8e/)
8d/J
=4
(8d/L
8e/)
8g/J
4a/}
{8d/
=5
4g/
8g/
(8a/L
8g/)
8a/J
=6
(8b\L
8dd\)
8b\J
(8a/L
8g/)}
{8a/J
=7
(8.b/L
16a/k)
8g/J
(8g/L
8e/)
8d/J
=8
(8d/L
8e/)
8g/J
4g/}
{8b/
=9
4dd\
8ee\
(8dd\L
8b\)
8g\J
=10
4dd\
8ee\
(8dd\L
8b\)}
{8g\J
=11
(8dd\L
8b\)
8g\J
(8dd\L
8b\)
8g\J
=12
(8ee\L
8dd\)
8b\J
4a/}
{(16b/LL
16a/JJ)
=13
4g/
8g/
(8a/L
8g/)
8a/J
=14
(8b\L
8dd\)
8b\J
(8a/L
8g/)}
{8a/J
=15
(8.b/L
16a/k)
8g/J
(8g/L
8e/)
8d/J
=16
(8d/L
8e/)
8g/J
4g/}
==
*-
